src/assets/images/logo-airtime-rewards-dark.svg

<svg height="145.506" viewBox="0 0 200 145.506" width="200" xmlns="http://www.w3.org/2000/svg"><path d="m13.457 27.831-4.162 4.162a40.994 40.994 0 0 0 29.037 12.034 40.869 40.869 0 0 0 4.9-.29v-5.937a35.448 35.448 0 0 1 -4.9.355 35.251 35.251 0 0 1 -24.875-10.324z" fill="#00e8d1" transform="translate(1.674 5.012)"/><path d="m37.066 27.65a23.255 23.255 0 0 1 -16.551-6.872l-4.194 4.162a29.21 29.21 0 0 0 20.713 8.582 27.187 27.187 0 0 0 4.9-.419v-5.969a23.979 23.979 0 0 1 -4.868.516z" fill="#00e8d1" transform="translate(2.939 3.742)"/><path d="m1.64 20.7v6.291a11.686 11.686 0 0 1 4.968-1.129 11.558 11.558 0 0 1 8.192 3.387h.032l4.13-4.13a17.3 17.3 0 0 0 -12.353-5.161 16.837 16.837 0 0 0 -4.969.742z" fill="#00e8d1" transform="translate(.295 3.594)"/><path d="m31.451 16.2 4.194-4.162a40.86 40.86 0 0 0 -29.036-12.038 41.944 41.944 0 0 0 -4.969.29v5.937a36.023 36.023 0 0 1 4.968-.355 34.963 34.963 0 0 1 24.843 10.328z" fill="#00e8d1" transform="translate(.295)"/><path d="m27.321 18.533a29.211 29.211 0 0 0 -20.712-8.582 28.164 28.164 0 0 0 -4.968.419v6a22.982 22.982 0 0 1 4.968-.516 23.255 23.255 0 0 1 16.551 6.874z" fill="#00e8d1" transform="translate(.295 1.792)"/><path d="m40.7 22.311v-6.291a11.377 11.377 0 0 1 -4.9 1.1 11.585 11.585 0 0 1 -8.227-3.42h-.032l-4.141 4.159a17.665 17.665 0 0 0 17.3 4.452z" fill="#00e8d1" transform="translate(4.215 2.467)"/><g fill="#0d2b3a"><path d="m13.005 35.284 4.195-4.194a40.2 40.2 0 0 1 -3.775-3.258l-4.13 4.162a45.034 45.034 0 0 0 3.71 3.29z" opacity=".25" transform="translate(1.674 5.012)"/><path d="m20.161 28.161 4.226-4.226a24.417 24.417 0 0 1 -3.9-3.13l-4.162 4.13a28.242 28.242 0 0 0 3.836 3.226z" opacity=".25" transform="translate(2.939 3.747)"/><path d="m27.435 20.892 4.452-4.452a11.132 11.132 0 0 1 -4.287-2.74l-4.2 4.159a17.629 17.629 0 0 0 4.035 3.033z" opacity=".25" transform="translate(4.215 2.467)"/><path d="m29.392 60.317v28.783h-5.517l-.613-2.452-.29-.29-.29.29a10.822 10.822 0 0 1 -7.969 3.065 14.552 14.552 0 0 1 -14.713-14.974 14.553 14.553 0 0 1 14.712-15 10.873 10.873 0 0 1 7.969 3.061l.29.29.29-.29.613-2.452h5.517zm-8.034 21.132a10.292 10.292 0 0 0 0-13.486 8.235 8.235 0 0 0 -6.358-2.742 8.286 8.286 0 0 0 -6.582 2.71 9.934 9.934 0 0 0 -2.355 6.808 9.934 9.934 0 0 0 2.355 6.808 8.286 8.286 0 0 0 6.582 2.709 8.3 8.3 0 0 0 6.358-2.807z" transform="translate(0 10.758)"/><path d="m37.195 60.228h-6v28.779h6z" transform="translate(5.618 10.847)"/><path d="m82.523 60.228h-6v28.779h6z" transform="translate(13.782 10.847)"/><path d="m110.559 64.618 1.516-1.839a7.661 7.661 0 0 1 3.13-2.194 9.854 9.854 0 0 1 3.9-.871c3.323 0 5.871.936 7.678 2.839a10.514 10.514 0 0 1 2.717 7.547v18.973h-6.131v-18.357c0-3.678-1.645-5.517-4.9-5.517a6.433 6.433 0 0 0 -4.646 1.9 6.613 6.613 0 0 0 -2.1 4.581v17.39h-6.133v-18.354c0-3.678-1.645-5.517-4.9-5.517a6.433 6.433 0 0 0 -4.646 1.9 6.614 6.614 0 0 0 -2.1 4.581v17.39h-6.13v-28.775h5.516l.613 2.452.29.29.29-.29a6.382 6.382 0 0 1 2.877-2.194 9.366 9.366 0 0 1 3.872-.871c4.511.032 7.577 1.677 9.287 4.936z" transform="translate(15.815 10.749)"/><path d="m154.28 76.255h-20.808a7.861 7.861 0 0 0 2.226 5.678 8.05 8.05 0 0 0 6.034 2.291 8.207 8.207 0 0 0 4.516-1.194 6.532 6.532 0 0 0 2.613-3.1l5.13 2.452a13.609 13.609 0 0 1 -12.55 7.356 13.382 13.382 0 0 1 -9.968-4.226 14.8 14.8 0 0 1 -4.1-10.776 14.968 14.968 0 0 1 4-10.808 13.317 13.317 0 0 1 10.065-4.194 12.7 12.7 0 0 1 9.551 4.1 14.686 14.686 0 0 1 3.9 10.582zm-12.872-11.034c-4 0-6.55 1.871-7.646 5.646h14.711a5.677 5.677 0 0 0 -2.258-4 7.43 7.43 0 0 0 -4.807-1.646z" transform="translate(22.94 10.758)"/><path d="m49.278 63.293-.29.29-.29-.29-.613-3.065h-5.518v28.779h6.133v-16.777a6.552 6.552 0 0 1 2.1-4.581 6.487 6.487 0 0 1 4.646-1.9h.613v-5.521a9.529 9.529 0 0 0 -6.614 2.936c-.071.065-.135.097-.167.129z" transform="translate(7.666 10.847)"/><path d="m37.195 52.6h-6v6h6z" transform="translate(5.618 9.473)"/><path d="m82.523 52.6h-6v6h6z" transform="translate(13.782 9.473)"/><path d="m70.7 84.9a2.989 2.989 0 0 1 -2.258-.871 2.941 2.941 0 0 1 -.871-2.194v-14.711h6.194v-5.517h-6.192v-9.034h-1.162l-4.839 4.839v4.194h-3.972v5.517h3.968v14.713a8.127 8.127 0 0 0 2.42 6.356c1.613 1.484 3.936 2.194 7 2.194l3.355-.613v-5.517z" transform="translate(10.374 9.468)"/><path d="m18.191 98.488a6.65 6.65 0 0 0 -3.065-.613 8.208 8.208 0 0 0 -6.743 3.678l-.29.29-.29-.29-.613-3.065h-5.55v28.779h6.13v-16.778a6.843 6.843 0 0 1 6.743-6.489h2.162z" transform="translate(.295 17.627)"/><path d="m43.644 114.393h-20.844a7.863 7.863 0 0 0 2.226 5.679 8.048 8.048 0 0 0 6.033 2.291 8.2 8.2 0 0 0 4.517-1.194 6.531 6.531 0 0 0 2.613-3.1l5.13 2.452a13.611 13.611 0 0 1 -12.55 7.356 13.387 13.387 0 0 1 -9.969-4.226 14.8 14.8 0 0 1 -4.1-10.777 14.97 14.97 0 0 1 4-10.807 13.317 13.317 0 0 1 10.066-4.195 12.693 12.693 0 0 1 9.55 4.1 14.68 14.68 0 0 1 3.9 10.582zm-12.873-11.034c-4 0-6.549 1.872-7.646 5.647h14.711a5.683 5.683 0 0 0 -2.258-4 7.492 7.492 0 0 0 -4.807-1.647z" transform="translate(3.008 17.627)"/><path d="m52.088 118.914 5.512-16.229h6.13l5.517 16.229 4.968-20.52h6.065l-7.969 28.779h-5.802l-5.809-16.584-5.807 16.584h-5.806l-7.969-28.779h6.065z" transform="translate(7.405 17.721)"/><path d="m105.257 98.488v28.779h-5.516l-.613-2.452-.29-.29-.29.29a10.824 10.824 0 0 1 -7.969 3.065 14.553 14.553 0 0 1 -14.712-15 14.553 14.553 0 0 1 14.712-15 10.873 10.873 0 0 1 7.969 3.065l.29.29.29-.29.613-2.452zm-8.033 21.132a10.293 10.293 0 0 0 0-13.486 9.037 9.037 0 0 0 -12.938-.032 11.016 11.016 0 0 0 0 13.615 8.286 8.286 0 0 0 6.582 2.711 8.637 8.637 0 0 0 6.356-2.808z" transform="translate(13.663 17.627)"/><path d="m151.434 88v41.039h-5.517l-.612-2.452-.29-.29-.29.29a10.826 10.826 0 0 1 -7.969 3.065 14.552 14.552 0 0 1 -14.712-15 14.553 14.553 0 0 1 14.712-15 10.874 10.874 0 0 1 7.969 3.065l.29.29.29-.29v-14.717zm-8.034 33.4a10.294 10.294 0 0 0 0-13.486 9.037 9.037 0 0 0 -12.937-.032 11.015 11.015 0 0 0 0 13.615 8.284 8.284 0 0 0 6.581 2.711 8.533 8.533 0 0 0 6.356-2.808z" transform="translate(21.979 15.849)"/><path d="m169.816 125.266a10.948 10.948 0 0 1 -7.387 2.613 11.813 11.813 0 0 1 -7.389-2.322 10.637 10.637 0 0 1 -3.94-6.257l5.517-2.13a5.855 5.855 0 0 0 1.9 3.84 5.653 5.653 0 0 0 3.9 1.516 5 5 0 0 0 3.387-1 3.228 3.228 0 0 0 1.194-2.484c0-1.678-1.226-2.71-3.678-3.13-.806-.162-1.839-.387-3.065-.677a12.635 12.635 0 0 1 -6.034-3.226 7.972 7.972 0 0 1 .839-11.808 11.311 11.311 0 0 1 7.033-2.323 10.928 10.928 0 0 1 6.968 2.387 8.858 8.858 0 0 1 3.42 6.195h-6.129a2.751 2.751 0 0 0 -1.226-2.259 5.653 5.653 0 0 0 -6.129 0 2.751 2.751 0 0 0 -1.226 2.259q0 2.565 3.677 3.29l3.066.614a12.681 12.681 0 0 1 6.033 3 7.483 7.483 0 0 1 2.226 5.647 7.722 7.722 0 0 1 -2.957 6.255z" transform="translate(27.213 17.627)"/><path d="m123.525 98.488a6.655 6.655 0 0 0 -3.066-.613 8.21 8.21 0 0 0 -6.743 3.678l-.29.29-.29-.29-.612-3.065h-5.517v28.779h6.129v-16.778a6.843 6.843 0 0 1 6.742-6.489h2.162z" transform="translate(19.272 17.627)"/></g></svg>

<svg xmlns="http://www.w3.org/2000/svg" width="200" height="145.506" viewBox="0 0 200 145.506"><g transform="translate(0 0)"><path d="M13.457,27.831h0L9.295,31.993A40.994,40.994,0,0,0,38.332,44.027a40.869,40.869,0,0,0,4.9-.29V37.8a35.448,35.448,0,0,1-4.9.355A35.251,35.251,0,0,1,13.457,27.831Z" transform="translate(1.674 5.012)" fill="#00e8d1"/><path d="M37.066,27.65a23.255,23.255,0,0,1-16.551-6.872L16.321,24.94a29.21,29.21,0,0,0,20.713,8.582,27.187,27.187,0,0,0,4.9-.419V27.134A23.979,23.979,0,0,1,37.066,27.65Z" transform="translate(2.939 3.742)" fill="#00e8d1"/><path d="M1.64,20.7v6.291a11.686,11.686,0,0,1,4.968-1.129A11.558,11.558,0,0,1,14.8,29.249h.032l4.13-4.13A17.3,17.3,0,0,0,6.609,19.958,16.837,16.837,0,0,0,1.64,20.7Z" transform="translate(0.295 3.594)" fill="#00e8d1"/><path d="M31.451,16.2l4.194-4.162A40.86,40.86,0,0,0,6.609,0,41.944,41.944,0,0,0,1.64.29V6.227a36.023,36.023,0,0,1,4.968-.355A34.963,34.963,0,0,1,31.451,16.2Z" transform="translate(0.295 0)" fill="#00e8d1"/><path d="M27.321,18.533A29.211,29.211,0,0,0,6.609,9.951a28.164,28.164,0,0,0-4.968.419v6a22.982,22.982,0,0,1,4.968-.516A23.255,23.255,0,0,1,23.16,22.728Z" transform="translate(0.295 1.792)" fill="#00e8d1"/><path d="M40.7,22.311V16.02a11.377,11.377,0,0,1-4.9,1.1,11.585,11.585,0,0,1-8.227-3.42h-.032L23.4,17.859A17.665,17.665,0,0,0,40.7,22.311Z" transform="translate(4.215 2.467)" fill="#00e8d1"/><path d="M13.005,35.284,17.2,31.09a40.2,40.2,0,0,1-3.775-3.258l-4.13,4.162A45.034,45.034,0,0,0,13.005,35.284Z" transform="translate(1.674 5.012)" fill="#0d2b3a" opacity="0.25"/><path d="M20.161,28.161l4.226-4.226a24.417,24.417,0,0,1-3.9-3.13l-4.162,4.13A28.242,28.242,0,0,0,20.161,28.161Z" transform="translate(2.939 3.747)" fill="#0d2b3a" opacity="0.25"/><path d="M27.435,20.892l4.452-4.452A11.132,11.132,0,0,1,27.6,13.7L23.4,17.859A17.629,17.629,0,0,0,27.435,20.892Z" transform="translate(4.215 2.467)" fill="#0d2b3a" opacity="0.25"/><path d="M29.392,60.317V89.1H23.875l-.613-2.452-.29-.29-.29.29a10.822,10.822,0,0,1-7.969,3.065A14.552,14.552,0,0,1,0,74.739a14.553,14.553,0,0,1,14.712-15A10.873,10.873,0,0,1,22.681,62.8l.29.29.29-.29.613-2.452h5.517ZM21.358,81.449a10.292,10.292,0,0,0,0-13.486A8.235,8.235,0,0,0,15,65.221a8.286,8.286,0,0,0-6.582,2.71,9.934,9.934,0,0,0-2.355,6.808,9.934,9.934,0,0,0,2.355,6.808A8.286,8.286,0,0,0,15,84.256,8.3,8.3,0,0,0,21.358,81.449Z" transform="translate(0 10.758)" fill="#0d2b3a"/><path d="M37.195,60.228h-6V89.007h6Z" transform="translate(5.618 10.847)" fill="#0d2b3a"/><path d="M82.523,60.228h-6V89.007h6Z" transform="translate(13.782 10.847)" fill="#0d2b3a"/><path d="M110.559,64.618l1.516-1.839a7.661,7.661,0,0,1,3.13-2.194,9.854,9.854,0,0,1,3.9-.871c3.323,0,5.871.936,7.678,2.839A10.514,10.514,0,0,1,129.5,70.1V89.073h-6.131V70.716c0-3.678-1.645-5.517-4.9-5.517a6.433,6.433,0,0,0-4.646,1.9,6.613,6.613,0,0,0-2.1,4.581v17.39H105.59V70.716c0-3.678-1.645-5.517-4.9-5.517a6.433,6.433,0,0,0-4.646,1.9,6.614,6.614,0,0,0-2.1,4.581v17.39h-6.13V60.295H93.33l.613,2.452.29.29.29-.29A6.382,6.382,0,0,1,97.4,60.553a9.366,9.366,0,0,1,3.872-.871C105.783,59.714,108.849,61.359,110.559,64.618Z" transform="translate(15.815 10.749)" fill="#0d2b3a"/><path d="M154.28,76.255H133.472a7.861,7.861,0,0,0,2.226,5.678,8.05,8.05,0,0,0,6.034,2.291,8.207,8.207,0,0,0,4.516-1.194,6.532,6.532,0,0,0,2.613-3.1l5.13,2.452a13.609,13.609,0,0,1-12.55,7.356,13.382,13.382,0,0,1-9.968-4.226,14.8,14.8,0,0,1-4.1-10.776,14.968,14.968,0,0,1,4-10.808,13.317,13.317,0,0,1,10.065-4.194,12.7,12.7,0,0,1,9.551,4.1,14.686,14.686,0,0,1,3.9,10.582ZM141.408,65.221c-4,0-6.55,1.871-7.646,5.646h14.711a5.677,5.677,0,0,0-2.258-4A7.43,7.43,0,0,0,141.408,65.221Z" transform="translate(22.94 10.758)" fill="#0d2b3a"/><path d="M49.278,63.293l-.29.29-.29-.29-.613-3.065H42.567V89.007H48.7V72.23a6.552,6.552,0,0,1,2.1-4.581,6.487,6.487,0,0,1,4.646-1.9h.613V60.228a9.529,9.529,0,0,0-6.614,2.936C49.374,63.229,49.31,63.261,49.278,63.293Z" transform="translate(7.666 10.847)" fill="#0d2b3a"/><path d="M37.195,52.6h-6v6h6Z" transform="translate(5.618 9.473)" fill="#0d2b3a"/><path d="M82.523,52.6h-6v6h6Z" transform="translate(13.782 9.473)" fill="#0d2b3a"/><path d="M70.7,84.9a2.989,2.989,0,0,1-2.258-.871,2.941,2.941,0,0,1-.871-2.194V67.124h6.194V61.607H67.573V52.573H66.411l-4.839,4.839v4.194H57.6v5.517h3.968V81.836a8.127,8.127,0,0,0,2.42,6.356c1.613,1.484,3.936,2.194,7,2.194l3.355-.613V84.256Z" transform="translate(10.374 9.468)" fill="#0d2b3a"/><path d="M18.191,98.488a6.65,6.65,0,0,0-3.065-.613,8.208,8.208,0,0,0-6.743,3.678l-.29.29-.29-.29-.613-3.065H1.64v28.779H7.77V110.489A6.843,6.843,0,0,1,14.513,104h2.162Z" transform="translate(0.295 17.627)" fill="#0d2b3a"/><path d="M43.644,114.393H22.8a7.863,7.863,0,0,0,2.226,5.679,8.048,8.048,0,0,0,6.033,2.291,8.2,8.2,0,0,0,4.517-1.194,6.531,6.531,0,0,0,2.613-3.1l5.13,2.452a13.611,13.611,0,0,1-12.55,7.356,13.387,13.387,0,0,1-9.969-4.226,14.8,14.8,0,0,1-4.1-10.777,14.97,14.97,0,0,1,4-10.807,13.317,13.317,0,0,1,10.066-4.195,12.693,12.693,0,0,1,9.55,4.1,14.68,14.68,0,0,1,3.9,10.582ZM30.771,103.359c-4,0-6.549,1.872-7.646,5.647H37.836a5.683,5.683,0,0,0-2.258-4A7.492,7.492,0,0,0,30.771,103.359Z" transform="translate(3.008 17.627)" fill="#0d2b3a"/><path d="M52.088,118.914,57.6,102.685h6.13l5.517,16.229,4.968-20.52h6.065l-7.969,28.779H66.509L60.7,110.589l-5.807,16.584H49.087L41.118,98.394h6.065Z" transform="translate(7.405 17.721)" fill="#0d2b3a"/><path d="M105.257,98.488v28.779H99.741l-.613-2.452-.29-.29-.29.29a10.824,10.824,0,0,1-7.969,3.065,14.553,14.553,0,0,1-14.712-15,14.553,14.553,0,0,1,14.712-15,10.873,10.873,0,0,1,7.969,3.065l.29.29.29-.29.613-2.452ZM97.224,119.62a10.293,10.293,0,0,0,0-13.486,9.037,9.037,0,0,0-12.938-.032,11.016,11.016,0,0,0,0,13.615,8.286,8.286,0,0,0,6.582,2.711A8.637,8.637,0,0,0,97.224,119.62Z" transform="translate(13.663 17.627)" fill="#0d2b3a"/><path d="M151.434,88v41.039h-5.517l-.612-2.452-.29-.29-.29.29a10.826,10.826,0,0,1-7.969,3.065,14.552,14.552,0,0,1-14.712-15,14.553,14.553,0,0,1,14.712-15,10.874,10.874,0,0,1,7.969,3.065l.29.29.29-.29V88ZM143.4,121.4a10.294,10.294,0,0,0,0-13.486,9.037,9.037,0,0,0-12.937-.032,11.015,11.015,0,0,0,0,13.615,8.284,8.284,0,0,0,6.581,2.711A8.533,8.533,0,0,0,143.4,121.4Z" transform="translate(21.979 15.849)" fill="#0d2b3a"/><path d="M169.816,125.266a10.948,10.948,0,0,1-7.387,2.613,11.813,11.813,0,0,1-7.389-2.322A10.637,10.637,0,0,1,151.1,119.3l5.517-2.13a5.855,5.855,0,0,0,1.9,3.84,5.653,5.653,0,0,0,3.9,1.516,5,5,0,0,0,3.387-1,3.228,3.228,0,0,0,1.194-2.484c0-1.678-1.226-2.71-3.678-3.13-.806-.162-1.839-.387-3.065-.677a12.635,12.635,0,0,1-6.034-3.226,7.972,7.972,0,0,1,.839-11.808,11.311,11.311,0,0,1,7.033-2.323,10.928,10.928,0,0,1,6.968,2.387,8.858,8.858,0,0,1,3.42,6.195h-6.129a2.751,2.751,0,0,0-1.226-2.259,5.653,5.653,0,0,0-6.129,0,2.751,2.751,0,0,0-1.226,2.259q0,2.565,3.677,3.29l3.066.614a12.681,12.681,0,0,1,6.033,3,7.483,7.483,0,0,1,2.226,5.647A7.722,7.722,0,0,1,169.816,125.266Z" transform="translate(27.213 17.627)" fill="#0d2b3a"/><path d="M123.525,98.488a6.655,6.655,0,0,0-3.066-.613,8.21,8.21,0,0,0-6.743,3.678l-.29.29-.29-.29-.612-3.065h-5.517v28.779h6.129V110.489A6.843,6.843,0,0,1,119.878,104h2.162Z" transform="translate(19.272 17.627)" fill="#0d2b3a"/></g></svg>
